kwork_juristConsalt/img/svg/freeTime.svg

<svg width="100" height="100" viewBox="0 0 100 100" fill="none" xmlns="http://www.w3.org/2000/svg">
<path d="M50 0L25 50L50 100C77.6143 100 100 77.6143 100 50C100 22.3857 77.6143 0 50 0Z" fill="#20596E"/>
<path d="M0 50C0 77.6143 22.3857 100 50 100V0C22.3857 0 0 22.3857 0 50Z" fill="#2285A5"/>
<path d="M50 11.7188L30.8594 50L50 88.2812C71.1422 88.2812 88.2812 71.1422 88.2812 50C88.2812 28.8578 71.1422 11.7188 50 11.7188Z" fill="#C4F3FF"/>
<path d="M11.7188 50C11.7188 71.1422 28.8578 88.2812 50 88.2812V11.7188C28.8578 11.7188 11.7188 28.8578 11.7188 50Z" fill="white"/>
<path d="M58.2863 54.1431L50 45.8568H46.0938L50 54.1431L54.1432 58.2863L58.2863 54.1431Z" fill="#1C3C89"/>
<path d="M33.3581 29.215L29.215 33.3581L49.9999 54.1431V45.8568L33.3581 29.215Z" fill="#1C3C89"/>
<path d="M66.7111 29.1459L50 45.8568L46.0938 54.1431H50L70.8541 33.2888L66.7111 29.1459Z" fill="#1C3C89"/>
<path d="M41.7137 54.1431L45.8568 58.2863L50 54.1431V45.8568L41.7137 54.1431Z" fill="#1C3C89"/>
<path d="M52.9297 17.5781H50L48.0469 20.5078L50 23.4375H52.9297V17.5781Z" fill="#1C3C89"/>
<path d="M47.0703 17.5781H50V23.4375H47.0703V17.5781Z" fill="#1C3C89"/>
<path d="M52.9297 76.5625H50L48.0469 79.4922L50 82.4219H52.9297V76.5625Z" fill="#1C3C89"/>
<path d="M47.0703 76.5625H50V82.4219H47.0703V76.5625Z" fill="#1C3C89"/>
<path d="M17.5781 52.9297V47.0703H23.4375V52.9297H17.5781Z" fill="#1C3C89"/>
<path d="M76.5625 52.9297V47.0703H82.4219V52.9297H76.5625Z" fill="#1C3C89"/>
</svg>

<svg width="100" height="100" fill="none" xmlns="http://www.w3.org/2000/svg"><path d="M50 0L25 50l25 50c27.614 0 50-22.386 50-50S77.614 0 50 0z" fill="#20596E"/><path d="M0 50c0 27.614 22.386 50 50 50V0C22.386 0 0 22.386 0 50z" fill="#2285A5"/><path d="M50 11.719L30.86 50 50 88.281c21.142 0 38.281-17.139 38.281-38.281S71.142 11.719 50 11.719z" fill="#C4F3FF"/><path d="M11.719 50c0 21.142 17.139 38.281 38.281 38.281V11.72c-21.142 0-38.281 17.139-38.281 38.281z" fill="#fff"/><path d="M58.286 54.143L50 45.857h-3.906L50 54.143l4.143 4.143 4.143-4.143z" fill="#1C3C89"/><path d="M33.358 29.215l-4.143 4.143L50 54.143v-8.286L33.358 29.215z" fill="#1C3C89"/><path d="M66.711 29.146L50 45.856l-3.906 8.287H50L70.854 33.29l-4.143-4.143z" fill="#1C3C89"/><path d="M41.714 54.143l4.143 4.143L50 54.143v-8.286l-8.286 8.286zM52.93 17.578H50l-1.953 2.93L50 23.438h2.93v-5.86z" fill="#1C3C89"/><path d="M47.07 17.578H50v5.86h-2.93v-5.86zm5.86 58.985H50l-1.953 2.93L50 82.421h2.93v-5.86z" fill="#1C3C89"/><path d="M47.07 76.563H50v5.859h-2.93v-5.86zM17.578 52.93v-5.86h5.86v5.86h-5.86zm58.985 0v-5.86h5.859v5.86h-5.86z" fill="#1C3C89"/></svg>
